X:26
T:Harlequin Vagaries. THO5.026
M:2/4
L:1/8
B:Thompson's Complete Collection of 200 Favourite Dances Vol.5
F:https://www.libraryofdance.org/manuals/1780c-Thompson-Compleat-5.pdf
Z:vmp. Peter Dunk 2024
Q:1/4=110
K:G
B/c/B/c/ AB|G/A/B/c/ dD|E/F/E/F/ DG|A/B/c/B/ BA|
B/c/B/c/ AB|G/A/B/c/ dD|E/F/E/F/ DG|B/A/G/F/ !fine!G2:|
d/^c/d/e/ dA|d/^c/d/e/ {f/}(ed/c/)|d/^c/d/e/ dA/G/|F/G/A/G/ {G/}FE/D/|
d/^c/d/e/ dA|d/^c/d/e/ {f/}(ed/c/)|d/^c/d/e/ dd/e/|f/e/d/"_sic"c/ !D.C.!d2 |]
W:
W:The 1st Couple: Allemand with the right hand then with the left ./.
W:1st ans 2nd Couple: set and change sides, the same back again ./:
W:lead down the middle, up again and cast off :/.
W:hands 6 round :/:

